X:4914
L:1/8
M:4/4
K:C
[M:4/4][K:G] cae eaed a b dg[Q:1/8=360] .udc |: Bdgd BGGB | Ac=fc A=FFc | Bdgd BGGB | 
 (3ABc =Fc AGGc | Bdgd BGGB | Ac=fc A=FFc | _B2 BA Bd=fd |1 cAF=B AGGc :|2 cAFB AGGA || 
 _B2 BA B2 GA | _BABd cBAB | G^fga gfga | =bgaf defd | gagf d^cde | fdc_B A=F (3FEF | Gg^fg dg=bg | 
 fdcA AGGc ||

